dist/upp/assets/img/cases/8.svg

<svg width="25" height="24" viewBox="0 0 25 24" fill="none" xmlns="http://www.w3.org/2000/svg">
<g id="9035489_school_outline_icon 1" clip-path="url(#clip0_356_3234)">
<path id="Vector" d="M1.83203 9L12.332 3L22.832 9L12.332 15L1.83203 9Z" stroke="#D8DEFD" stroke-width="2" stroke-linecap="round" stroke-linejoin="round"/>
<path id="Vector_2" d="M5.58203 11.25V17.25L12.332 21L19.082 17.25V11.25" stroke="#D8DEFD" stroke-width="2" stroke-linecap="round" stroke-linejoin="round"/>
<path id="Vector_3" d="M22.832 17.25V9" stroke="#D8DEFD" stroke-width="2" stroke-linecap="round" stroke-linejoin="round"/>
<path id="Vector_4" d="M12.332 15V21" stroke="#D8DEFD" stroke-width="2" stroke-linecap="round" stroke-linejoin="round"/>
</g>
<defs>
<clipPath id="clip0_356_3234">
<rect width="24" height="24" fill="white" transform="translate(0.332031)"/>
</clipPath>
</defs>
</svg>

<svg width="25" height="24" fill="none" xmlns="http://www.w3.org/2000/svg"><g id="9035489_school_outline_icon 1" clip-path="url(#clip0_356_3234)" stroke="#D8DEFD" stroke-width="2" stroke-linecap="round" stroke-linejoin="round"><path id="Vector" d="M1.832 9l10.5-6 10.5 6-10.5 6-10.5-6z"/><path id="Vector_2" d="M5.582 11.25v6l6.75 3.75 6.75-3.75v-6"/><path id="Vector_3" d="M22.832 17.25V9"/><path id="Vector_4" d="M12.332 15v6"/></g><defs><clipPath id="clip0_356_3234"><path fill="#fff" transform="translate(.332)" d="M0 0h24v24H0z"/></clipPath></defs></svg>
